images/icons/v2/link-broken-16.svg

<svg height="16" viewBox="0 0 16 16" width="16" xmlns="http://www.w3.org/2000/svg"><path d="m12.146 2.146-3.477 3.478a2.476 2.476 0 0 0 -1.638-.624h-3.531a2.5 2.5 0 0 0 0 5h.793l-2.147 2.146.708.708 10-10zm-8.646 6.854a1.5 1.5 0 0 1 0-3h3.531a1.467 1.467 0 0 1 .923.339l-2.661 2.661zm11.5-1.5a2.5 2.5 0 0 1 -2.5 2.5h-3a2.483 2.483 0 0 1 -1.7-.677l.707-.708a1.488 1.488 0 0 0 .993.385h3a1.5 1.5 0 0 0 0-3h-1.379l1-1h.379a2.5 2.5 0 0 1 2.5 2.5z"/></svg>

<svg xmlns="http://www.w3.org/2000/svg" width="16" height="16" viewBox="0 0 16 16"><title>link-broken-16</title><path d="M12.146,2.146,8.669,5.624A2.476,2.476,0,0,0,7.031,5H3.5a2.5,2.5,0,0,0,0,5h.793L2.146,12.146l.708.708,10-10ZM3.5,9a1.5,1.5,0,0,1,0-3H7.031a1.467,1.467,0,0,1,.923.339L5.293,9ZM15,7.5A2.5,2.5,0,0,1,12.5,10h-3a2.483,2.483,0,0,1-1.7-.677l.707-.708A1.488,1.488,0,0,0,9.5,9h3a1.5,1.5,0,0,0,0-3H11.121l1-1H12.5A2.5,2.5,0,0,1,15,7.5Z"/></svg>
